outputs/icons/editor/align_horizontal_center_sharp.svg

<svg xmlns="http://www.w3.org/2000/svg" width="1200" height="1200" fill="none"><g clip-path="url(#a)"><path fill="#000" d="M550 100h100v250h400v150H650v200h250v150H650v250H550V850H300V700h250V500H150V350h400z"/></g><defs><clipPath id="a"><path fill="#fff" d="M0 0h1200v1200H0z"/></clipPath></defs></svg>

<svg width="1200" height="1200" viewBox="0 0 1200 1200" fill="none" xmlns="http://www.w3.org/2000/svg"><g clip-path="url(#clip0_125_1486)"><path d="M550 100H650V350H1050V500H650V700H900V850H650V1100H550V850H300V700H550V500H150V350H550V100Z" fill="#1D1E23"/></g><defs><clipPath id="clip0_125_1486"><path width="24" fill="white" d="M0 0H1200V1200H0V0z"/></clipPath></defs></svg>
